!!!COA:	Josquin des Prez
!!!CDT:	~1450-1521/08/27
!!!OTL:	Il n'est plaisir
!!!AGN:	Chanson
!!!SCT:	NJE 30.17
!!!SCA:	New Josquin Edition 30.17
!!!voices:	3
**kern	**kern	**kern
*staff3	*staff2	*staff1
*Ivox	*Ivox	*Ivox
*I"Bassus	*I"Tenor	*I"Discantus
*I'B	*I'T	*I'D
*clefF4	*clefGv2	*clefG2
*k[b-]	*k[b-]	*k[b-]
*M2/1	*M2/1	*M2/1
*met(C|)	*met(C|)	*met(C|)
=1-	=1-	=1-
1G	0r	0r
2G\	.	.
2G\	.	.
=2	=2	=2
1G	1d	0r
2r	2d\	.
2G\	2d\	.
=3	=3	=3
2.F\	1d	0r
4E\	.	.
1D	2r	.
.	2d\	.
=4	=4	=4
2r	2.c\	0r
2E\	.	.
.	4B-\	.
2.F\	1A	.
4E\	.	.
=5	=5	=5
2D\	2r	0r
2C/	2A/	.
1BB-	2.B-\	.
.	4A/	.
=6	=6	=6
2C/	2.G/	0r
2.E-\	.	.
.	4F/	.
.	2G/	.
4D\	.	.
4C/	[2A/	.
4BB-/	.	.
=7	=7	=7
2C/	4A/]	0r
.	4G/	.
2GG/	1G	.
1AA	.	.
.	2F#i/	.
=8	=8	=8
2GG/	1G	1dd
1G	.	.
.	2r	2dd\
4F\	2g\	2dd\
4E\	.	.
=9	=9	=9
1D	2.f\	1dd
.	4e\	.
2r	1d	2r
2B-\	.	2dd\
=10	=10	=10
1A	2r	2.cc\
.	2e\	.
.	.	4b-\
1D	2.f\	1a
.	4e\	.
=11	=11	=11
2r	2d\	2r
2A\	2c\	2a/
1G	1B-	2.b-\
.	.	4a/
=12	=12	=12
1C	2c\	2.g/
.	2.e-\	.
.	.	4f/
2r	.	2g/
.	4d\	.
[2F\	4c\	[2a/
.	4B-\	.
=13	=13	=13
2F\]	2c\	4a/]
.	.	4g/
2E\	2G/	1g
1D	1A	.
.	.	2f#i/
=14	=14	=14
2GG/	1G	1g
2G\	.	.
1A	2r	1r
.	2c\	.
=15	=15	=15
2r	4d\	0r
.	4c\	.
2D\	4d\	.
.	4B-\	.
2E\	2c\	.
2C/	[2e\	.
=16	=16	=16
2D\	4e\]	0r
.	4d\	.
2F\	1d	.
1E	.	.
.	2c\	.
=17	=17	=17
2.D\	4d\	1r
.	4e\	.
.	4f\	.
4E\	4g\	.
2F\	1a	2r
2A\	.	2cc\
=18	=18	=18
2G\	2r	4dd\
.	.	4cc\
2B-\	2d\	4dd\
.	.	4b-\
1A	2e\	2cc\
.	2c\	[2ee\
=19	=19	=19
2r	2d\	4ee\]
.	.	4dd\
2F\	2f\	1dd
2G\	1e	.
2A\	.	2cc#i\
=20	=20	=20
2B-\	1d	[0dd
2.G\	.	.
.	1r	.
4F\	.	.
2G\	.	.
=21	=21	=21
2D\	1d	0dd]
4G\	.	.
4F\	.	.
4G\	2d\	.
4F\	.	.
2G\	2d\	.
=22	=22	=22
2D\	1d	0r
1F	.	.
.	2r	.
4E-\	2d\	.
4D\	.	.
=23	=23	=23
4E-i\	2c\	0r
4D\	.	.
4C/	2B-\	.
4BB-/	.	.
1C	2B-\	.
.	2A/	.
=24	=24	=24
[0BB-	2.B-\	1dd
.	4c\	.
.	4d\	2dd\
.	4e\	.
.	[2f\	2dd\
=25	=25	=25
0BB-]	2f\]	1dd
.	4e\	.
.	4d\	.
.	2f\	2r
.	2B-\	2dd\
=26	=26	=26
1r	2e-\	2cc\
.	2d\	2b-\
2r	1c	2b-\
2F\	.	2a/
=27	=27	=27
2G\	2r	1b-
2G\	2B-\	.
2A\	2c\	1r
2A\	2c\	.
=28	=28	=28
2D\	2d\	0r
2.G\	2d\	.
.	2G/	.
4F\	.	.
4E\	2G/	.
4D\	.	.
=29	=29	=29
1C	2.c\	0r
.	4B-\	.
2r	2.A/	.
[2F\	.	.
.	4G/	.
=30	=30	=30
4F\]	1F	0r
4E\	.	.
4D\	.	.
4C/	.	.
2BB-/	2r	.
[2B-\	2f\	.
=31	=31	=31
2B-\]	2g\	2r
4A\	2g\	2b-\
4G\	.	.
1F	2a\	2cc\
.	2a\	2cc\
=32	=32	=32
2r	2d\	2dd\
2BB-/	2f\	2dd\
2.C/	2e\	1g
.	[2g\	.
4D\	.	.
=33	=33	=33
2E\	4g\]	2r
.	4f\	.
1C	4e\	2g/
.	4d\	.
.	1c	2.cc\
[2F\	.	.
.	.	4b-\
=34	=34	=34
4F\]	2r	2.a/
4G\	.	.
2A\	2.f\	.
.	.	4g/
2D\	.	1f
.	4e\	.
2F\	4d\	.
.	4c\	.
=35	=35	=35
2G\	2B-\	0r
2B-\	2d\	.
4A\	4c\	.
4G\	4B-\	.
4F\	4A/	.
4E\	4G/	.
=36	=36	=36
2D\	2B-\	0r
4C/	2A/	.
4BB-/	.	.
4AA/	2A/	.
4GG/	.	.
2BB-/	2G/	.
=37	=37	=37
1AA	2G/	1r
.	2F#i/	.
1GG	2G/	2r
.	2B-\	2dd\
=38	=38	=38
1r	2A/	4cc\
.	.	4b-\
.	2d\	4a/
.	.	4g/
1D	2r	2b-\
.	2d\	2a/
=39	=39	=39
1E-	4c\	2a/
.	4B-\	.
.	4A/	2g/
.	4G/	.
1D	2A/	2g/
.	2d\	2f#i/
=40	=40	=40
1E-i	4c\	1g
.	4B-\	.
.	4A/	.
.	4G/	.
2r	2B-\	1r
2D\	2A/	.
=41	=41	=41
4C/	2A/	2r
4BB-/	.	.
4AA/	2G/	2dd\
4GG/	.	.
1AA	2G/	4cc\
.	.	4b-\
.	2F/	4a/
.	.	4g/
=42	=42	=42
2GG/	2G/	2b-\
2D\	2A/	2a/
2G\	2B-\	2a/
2C/	2c\	2g/
=43	=43	=43
1D	1A	2g/
.	.	2f#i/
1GGl	1Gl	1gl
==	==	==
*-	*-	*-
!!!RDF**kern: l=long note in original notation
!!!RDF**kern: i=editorial accidental
!!!RDF**kern: V=start of tuplet marker
!!!RDF**kern: Z=end of tuplet marker
!!!ENC:	Chris Gage 06-07-2012
!!!END:	2012/06/07/
!!!EED:	Jesse Rodin
!!!EEV:	2012/06/20/
!!attribution-level@Jos: 4 (questionable)
!!!ONB:	Translated from MusicXML and edited on 2012/06/20/ by Craig Sapp
!!muse2ps: C^@{COA}?\n@{SCT}^i2I150v85,85,150Q16
